bundles/org.openhab.ui.habpanel/web/assets/icons/freepik-housethings/bedroom-furniture-small-table-for-bed-side.svg

<svg xmlns="http://www.w3.org/2000/svg" width="487.688" height="487.688" style="enable-background:new 0 0 487.688 487.688" xml:space="preserve"><path d="M133.727 210.375h219.938v-86.062H133.727v86.062zm115.83-64.643c10.52 0 19.049 8.53 19.049 19.049s-8.529 19.048-19.049 19.048c-10.519 0-19.048-8.53-19.048-19.048 0-10.519 8.529-19.049 19.048-19.049z"/><path d="M420.602 487.688V47.812H66.789v439.875h47.812v-47.812h258.188v47.812h47.813zm-306-382.5H372.79V229.5H114.602V105.188zm0 277.312V258.188H372.79V382.5H114.602zM419.109 28.688 449.586 0H38.102l30.485 28.688z"/></svg>

<?xml version="1.0" encoding="iso-8859-1"?>
<!-- Generator: Adobe Illustrator 16.0.0, SVG Export Plug-In . SVG Version: 6.00 Build 0)  -->
<!DOCTYPE svg PUBLIC "-//W3C//DTD SVG 1.1//EN" "http://www.w3.org/Graphics/SVG/1.1/DTD/svg11.dtd">
<svg version="1.1" id="Capa_1" xmlns="http://www.w3.org/2000/svg" xmlns:xlink="http://www.w3.org/1999/xlink" x="0px" y="0px"
	 width="487.688px" height="487.688px" viewBox="0 0 487.688 487.688" style="enable-background:new 0 0 487.688 487.688;"
	 xml:space="preserve">
<g>
	<path d="M133.727,210.375h219.938v-86.062H133.727V210.375z M249.557,145.732c10.52,0,19.049,8.53,19.049,19.049
		c0,10.519-8.529,19.048-19.049,19.048c-10.519,0-19.048-8.53-19.048-19.048C230.509,154.262,239.038,145.732,249.557,145.732z"/>
	<path d="M420.602,487.688v-45.719v-45.718V47.812H66.789v348.438v45.718v45.719h47.812v-47.812h258.188v47.812H420.602z
		 M114.602,105.188h258.188V229.5H114.602V105.188z M114.602,382.5V258.188h258.188V382.5H114.602z"/>
	<polygon points="419.109,28.688 449.586,0 38.102,0 68.587,28.688 	"/>
</g>
<g>
</g>
<g>
</g>
<g>
</g>
<g>
</g>
<g>
</g>
<g>
</g>
<g>
</g>
<g>
</g>
<g>
</g>
<g>
</g>
<g>
</g>
<g>
</g>
<g>
</g>
<g>
</g>
<g>
</g>
</svg>
